app/images/icons/book.svg

<?xml version="1.0" encoding="utf-8"?>
<!-- Generated by IcoMoon.io -->
<!DOCTYPE svg PUBLIC "-//W3C//DTD SVG 1.1//EN" "http://www.w3.org/Graphics/SVG/1.1/DTD/svg11.dtd">
<svg version="1.1" xmlns="http://www.w3.org/2000/svg" xmlns:xlink="http://www.w3.org/1999/xlink" width="16" height="16" viewBox="0 0 16 16">
<path fill="#444444" d="M14 2v13h-10.5c-0.829 0-1.5-0.672-1.5-1.5s0.671-1.5 1.5-1.5h9.5v-12h-10c-1.1 0-2 0.9-2 2v12c0 1.1 0.9 2 2 2h12v-14h-1z"></path>
<path fill="#444444" d="M3.501 13v0c-0 0-0.001 0-0.001 0-0.276 0-0.5 0.224-0.5 0.5s0.224 0.5 0.5 0.5c0 0 0.001-0 0.001-0v0h9.498v-1h-9.498z"></path>
</svg>

<svg xmlns="http://www.w3.org/2000/svg" width="16" height="16" viewBox="0 0 16 16"><path fill="#444" d="M14 2v13H3.5a1.5 1.5 0 0 1 0-3H13V0H3C1.9 0 1 .9 1 2v12c0 1.1.9 2 2 2h12V2h-1z"/><path fill="#444" d="M3.5 13a.5.5 0 0 0 0 1H13v-1H3.5z"/></svg>
